X: 1
T:Juliet's Mazurka
R:Mazurka
O:England
M:3/4
C:Andy Hornby
A:Lancaster
N:Jan 95
K:D
AG|\
FG AF Dd|cd ec Ag|fe fg af|e4 AG|\
FG AF Dd|cd ec Aa|fe fg ec|d4:|
|:fa|\
ga bg eg|fg af df|ef gf ed|c4 A2|\
Bc dB GB|AG FG AF|GF Ee ce|d4:|
W:Copyright (C) Andy Hornby
